X:1
T:Tell It to Jesus
T:Edmund Simon Lorenz
T:Tell It to Jesus
T:Public Domain
T:Public Domain
C:Edmund Simon Lorenz
Z:Public Domain
%%score ( 1 2 ) ( 3 4 )
L:1/8
M:4/4
K:G
V:1 treble 
V:2 treble 
V:3 bass 
V:4 bass 
V:1
 [B,G]2 [DB]2 [DB]2 [DA]2 | [EG]>[EA] [EG][CE] [B,D]2 [B,G]2 | [DA]2 [DA]>[DB] [DA]2 D2 | %3
w: 1.~Are you wear- y,|are you hea- vy heart- ed?|Tell it to Je- sus,|
w: 2.~Do the tears flow|down your cheeks un- bid- den?|Tell it to Je- sus,|
w: 3.~Do you fear the|ga- thering clouds of sor- row?|Tell it to Je- sus,|
w: 4.~Are you trou- bled|at the thought of dy- ing?|Tell it to Je- sus,|
 [DB]2 [DB]>[Ec] [DB]2 [B,G]2 | [B,G]2 [DB]2 [DB]2 [DA]2 | [EG]>[EA] [EG][CE] [B,D]2 [B,G]2 | %6
w: it to Je- sus. Are|you griev- ing o-|ver joys de- part- ed? Tell|
w: it to Je- sus. Have|you sins that to|men’s eyes are hidd- en? Tell|
w: it to Je- sus. Are|you anx- ious what|shall be to- mor- row? Tell|
w: it to Je- sus. For|Christ’s com- ing king-|dom are you sigh- ing? Tell|
 [CA]2 [CA]>[DB] [CA]2 [CD][CA] | [B,G]8 ||"^Refrain" [DA]2 [DA]>[DB] [DA]2 D2 | %9
w: it to Je- sus a- lone.|||
w: it to Je- sus a- lone.|||
w: it to Je- sus a- lone.|||
w: it to Je- sus a- lone.|||
 [DB]2 [DB]>[Ec] [DB]2 [B,G]2 | [Ec]2 [Ec][Ec] [DB]2 [DA][^CG] | [DA]8 | [B,G]2 [DB]2 [DB]2 [DA]2 | %13
w: ||||
w: ||||
w: ||||
w: ||||
 [EG]>[EA] [EG][CE] [B,D]2 [B,G]2 | [CA]2 [CA]>[DB] [CA]2 [CD][CA] | [B,G]8 |] %16
w: |||
w: |||
w: |||
w: |||
V:2
 x8 | x8 | x6 D2 | x8 | x8 | x8 | x8 | x8 || x8 | x8 | x8 | x8 | x8 | x8 | x8 | x8 |] %16
w: ||tell||||||||||||||
w: ||tell||||||||||||||
w: ||tell||||||||||||||
w: ||tell||||||||||||||
V:3
 [G,,D,]2 [G,,G,]2 [G,,G,]2 [B,,G,]2 | [C,G,]>[C,G,] [C,G,][C,G,] [G,,G,]2 [G,,G,]2 | %2
w: ~ ~ ~ ~|~ ~ ~ ~ ~ ~|
 [D,F,]2 [D,F,]>[D,G,] [D,F,]2 [D,F,]2 | [G,,G,]2 [G,,G,]>[G,,G,] [G,,G,]2 [G,,D,]2 | %4
w: ~ ~ ~ ~ ~|~ ~ ~ ~ ~|
 [G,,D,]2 [G,,G,]2 [G,,G,]2 [B,,G,]2 | [C,G,]>[C,G,] [C,G,][C,G,] [G,,G,]2 [G,,D,]2 | %6
w: ~ ~ ~ ~|~ ~ ~ ~ ~ ~|
 [D,F,]2 [D,F,]>[D,F,] [D,F,]2 [D,F,][D,F,] | [G,,D,]8 || [D,F,]2 [D,F,]>[D,G,] [D,F,]2 [D,F,]2 | %9
w: ~ ~ ~ ~ ~ ~|~|Tell it to Je- sus,|
 G,2 G,>G, G,2 G,2 | [C,G,]2 [C,G,][E,G,] G,2 [F,A,][E,A,] | [D,F,]8 | %12
w: tell it to Je- sus,|well known. You’ve no o- ther|such|
 [G,,D,]2 [G,,G,]2 [G,,G,]2 [B,,G,]2 | [C,G,]>[C,G,] [C,G,][C,G,] [G,,G,]2 [G,,G,]2 | %14
w: a friend or bro-|ther, Tell it to Je- sus|
 [D,F,]2 [D,F,]>[D,F,] [D,F,]2 [D,F,][D,F,] | [G,,D,]8 |] %16
w: a- lone. * * * *||
V:4
 x8 | x8 | x8 | x8 | x8 | x8 | x8 | x8 || x8 | G,2 G,>G, G,2 G,2 | x8 | x8 | x8 | x8 | x8 | x8 |] %16
w: |||||||||He is a friend that’s|||||||

